icons/diamond-16.svg

<svg width="16" height="16" viewBox="0 0 16 16" fill="none" xmlns="http://www.w3.org/2000/svg">
<g clip-path="url(#clip0)">
<path fill-rule="evenodd" clip-rule="evenodd" d="M0.527004 9.237C0.199082 8.90885 0.0148773 8.46392 0.0148773 8C0.0148773 7.53609 0.199082 7.09115 0.527004 6.763L6.777 0.512001C6.93951 0.349479 7.13244 0.220559 7.34477 0.132602C7.5571 0.0446454 7.78468 -0.00062561 8.0145 -0.00062561C8.24433 -0.00062561 8.47191 0.0446454 8.68424 0.132602C8.89657 0.220559 9.0895 0.349479 9.252 0.512001L15.503 6.762C15.6655 6.92451 15.7944 7.11743 15.8824 7.32976C15.9704 7.54209 16.0156 7.76967 16.0156 7.9995C16.0156 8.22933 15.9704 8.45691 15.8824 8.66924C15.7944 8.88157 15.6655 9.0745 15.503 9.237L9.253 15.488C9.0905 15.6505 8.89757 15.7794 8.68524 15.8674C8.47291 15.9554 8.24533 16.0006 8.0155 16.0006C7.78568 16.0006 7.5581 15.9554 7.34577 15.8674C7.13344 15.7794 6.94051 15.6505 6.778 15.488L0.527004 9.238V9.237ZM1.587 7.823C1.56372 7.84622 1.54525 7.87381 1.53265 7.90418C1.52004 7.93456 1.51356 7.96712 1.51356 8C1.51356 8.03288 1.52004 8.06544 1.53265 8.09582C1.54525 8.12619 1.56372 8.15378 1.587 8.177L7.838 14.427C7.86123 14.4503 7.88881 14.4688 7.91919 14.4814C7.94956 14.494 7.98212 14.5004 8.015 14.5004C8.04789 14.5004 8.08045 14.494 8.11082 14.4814C8.14119 14.4688 8.16878 14.4503 8.192 14.427L14.442 8.177C14.4653 8.15378 14.4838 8.12619 14.4964 8.09582C14.509 8.06544 14.5155 8.03288 14.5155 8C14.5155 7.96712 14.509 7.93456 14.4964 7.90418C14.4838 7.87381 14.4653 7.84622 14.442 7.823L8.192 1.573C8.16878 1.54972 8.14119 1.53125 8.11082 1.51864C8.08045 1.50604 8.04789 1.49955 8.015 1.49955C7.98212 1.49955 7.94956 1.50604 7.91919 1.51864C7.88881 1.53125 7.86123 1.54972 7.838 1.573L1.588 7.823H1.587Z" fill="black"/>
</g>
<defs>
<clipPath id="clip0">
<rect width="16" height="16" fill="white"/>
</clipPath>
</defs>
</svg>

<svg xmlns="http://www.w3.org/2000/svg" width="16" height="16" viewBox="0 0 16 16"><path fill-rule="evenodd" d="M.527 9.237a1.75 1.75 0 010-2.474L6.777.512a1.75 1.75 0 012.475 0l6.251 6.25a1.751 1.751 0 010 2.475l-6.25 6.251a1.751 1.751 0 01-2.475 0L.527 9.238v-.001zm1.06-1.414a.25.25 0 000 .354l6.251 6.25a.25.25 0 00.354 0l6.25-6.25a.25.25 0 000-.354l-6.25-6.25a.25.25 0 00-.354 0l-6.25 6.25h-.001z"/></svg>
